X: 130331
T: Maggie Shanley's
S: M. Mulvihill
Z: B.Black
R: slide
M: 12/8
L: 1/8
K: A
A2 B c2 e dcB A2 e | A2 B c2 e f3 e3 |
A2 B c2 e dcB A2 B | c2 e dcB A3-A3 :|
f2 e c2 e dcB A2 A | f2 e c2 e f3 e3 |
f2 e c2 e dcB A2 A | c2 e dcB A3-A3 :|
